src/img/icon-envelope-updated.svg

<svg fill="none" height="21" viewBox="0 0 20 21" width="20" xmlns="http://www.w3.org/2000/svg" xmlns:xlink="http://www.w3.org/1999/xlink"><clipPath id="a"><path d="m0 .5h20v20h-20z"/></clipPath><g clip-path="url(#a)" fill="#222"><path d="m1.91961 7.48668c.25299.17853 1.01562.70876 2.28792 1.59042 1.27233.88166 2.24703 1.5605 2.92412 2.0366.07439.0522.23244.1656.47422.3405.24182.175.44274.3163.60263.4242.15999.1078.35342.2288.58046.3626.22696.1338.44091.2344.6418.3011.20092.0671.38692.1004.55802.1004h.01122.0113c.1711 0 .3571-.0333.5581-.1004.2008-.0667.4149-.1674.6417-.3011.2269-.134.4203-.2548.5803-.3626.16-.1079.3608-.2492.6027-.4242.2417-.175.3999-.2883.4743-.3405.6844-.4761 2.4257-1.68521 5.2232-3.62726.5431-.3793.9969-.83698 1.3614-1.37272.3648-.53551.547-1.09728.547-1.68502 0-.49114-.1768-.91156-.5303-1.26123-.3534-.34975-.772-.52453-1.2555-.52453h-16.42856c-.57288 0-1.013748.19343-1.322528.58027-.308741.38693-.463112.87056-.463112 1.45087 0 .46874.204681.97669.613847 1.52353.409123.54689.844523.97661 1.305763 1.28907z"/><path d="m18.8838 8.68078c-2.4402 1.65162-4.2932 2.93522-5.5579 3.85052-.4241.3124-.7681.5562-1.0323.731s-.6156.3534-1.0547.5356c-.4389.1825-.848.2734-1.2275.2734h-.0114-.01119c-.37946 0-.78874-.0909-1.22765-.2734-.43892-.1822-.79054-.3608-1.05468-.5356-.26406-.1748-.60822-.4186-1.03228-.731-1.00452-.7366-2.85344-2.0202-5.54685-3.85052-.42422-.28255-.799963-.60642-1.12735-.97094v8.86136c0 .4914.174776.9116.524523 1.2613.349669.3498.770137.5246 1.261237.5246h16.42864c.491 0 .9114-.1748 1.2611-.5246.3498-.3499.5245-.7699.5245-1.2613v-8.86136c-.32.35698-.6919.68085-1.1162.97094z"/></g></svg>

<svg width="20" height="21" viewBox="0 0 20 21" fill="none" xmlns="http://www.w3.org/2000/svg">
<g clip-path="url(#clip0)">
<path d="M1.91961 7.48668C2.1726 7.66521 2.93523 8.19544 4.20753 9.0771C5.47986 9.95876 6.45456 10.6376 7.13165 11.1137C7.20604 11.1659 7.36409 11.2793 7.60587 11.4542C7.84769 11.6292 8.04861 11.7705 8.2085 11.8784C8.36849 11.9862 8.56192 12.1072 8.78896 12.241C9.01592 12.3748 9.22987 12.4754 9.43076 12.5421C9.63168 12.6092 9.81768 12.6425 9.98878 12.6425H10H10.0113C10.1824 12.6425 10.3684 12.6092 10.5694 12.5421C10.7702 12.4754 10.9843 12.3747 11.2111 12.241C11.438 12.107 11.6314 11.9862 11.7914 11.8784C11.9514 11.7705 12.1522 11.6292 12.3941 11.4542C12.6358 11.2792 12.794 11.1659 12.8684 11.1137C13.5528 10.6376 15.2941 9.42849 18.0916 7.48644C18.6347 7.10714 19.0885 6.64946 19.453 6.11372C19.8178 5.57821 20 5.01644 20 4.4287C20 3.93756 19.8232 3.51714 19.4697 3.16747C19.1163 2.81772 18.6977 2.64294 18.2142 2.64294H1.78564C1.21276 2.64294 0.771892 2.83637 0.463112 3.22321C0.154371 3.61014 0 4.09377 0 4.67408C0 5.14282 0.204681 5.65077 0.613847 6.19761C1.02297 6.7445 1.45837 7.17422 1.91961 7.48668Z" fill="#222222"/>
<path d="M18.8838 8.68078C16.4436 10.3324 14.5906 11.616 13.3259 12.5313C12.9018 12.8437 12.5578 13.0875 12.2936 13.2623C12.0294 13.4371 11.678 13.6157 11.2389 13.7979C10.8 13.9804 10.3909 14.0713 10.0114 14.0713H10H9.98881C9.60935 14.0713 9.20007 13.9804 8.76116 13.7979C8.32224 13.6157 7.97062 13.4371 7.70648 13.2623C7.44242 13.0875 7.09826 12.8437 6.6742 12.5313C5.66968 11.7947 3.82076 10.5111 1.12735 8.68078C0.70313 8.39823 0.327387 8.07436 0 7.70984V16.5712C0 17.0626 0.174776 17.4828 0.524523 17.8325C0.874192 18.1823 1.29466 18.3571 1.78576 18.3571H18.2144C18.7054 18.3571 19.1258 18.1823 19.4755 17.8325C19.8253 17.4826 20 17.0626 20 16.5712V7.70984C19.68 8.06682 19.3081 8.39069 18.8838 8.68078Z" fill="#222222"/>
</g>
<defs>
<clipPath id="clip0">
<rect width="20" height="20" fill="white" transform="translate(0 0.5)"/>
</clipPath>
</defs>
</svg>
